assets/images/arrow.svg

<svg fill="none" height="16" viewBox="0 0 24 24" width="16" xmlns="http://www.w3.org/2000/svg"><g clip-rule="evenodd" fill="#fff" fill-rule="evenodd"><path d="m12 2c.5523 0 1 .44772 1 1v18c0 .5523-.4477 1-1 1s-1-.4477-1-1v-18c0-.55228.4477-1 1-1z"/><path d="m11.2929 2.29289c.3905-.39052 1.0237-.39052 1.4142 0l6 6c.3905.39053.3905 1.02369 0 1.41422-.3905.39049-1.0237.39049-1.4142 0l-5.2929-5.2929-5.29289 5.2929c-.39053.39049-1.02369.39049-1.41422 0-.39052-.39053-.39052-1.02369 0-1.41422z"/></g></svg>

<svg width="16" height="16" viewBox="0 0 24 24" fill="none" xmlns="http://www.w3.org/2000/svg" data-reactroot="">
<path fill="#ffffff" d="M12 2C12.5523 2 13 2.44772 13 3V21C13 21.5523 12.5523 22 12 22C11.4477 22 11 21.5523 11 21V3C11 2.44772 11.4477 2 12 2Z" clip-rule="evenodd" fill-rule="evenodd" undefined="1"></path>
<path fill="#ffffff" d="M11.2929 2.29289C11.6834 1.90237 12.3166 1.90237 12.7071 2.29289L18.7071 8.29289C19.0976 8.68342 19.0976 9.31658 18.7071 9.70711C18.3166 10.0976 17.6834 10.0976 17.2929 9.70711L12 4.41421L6.70711 9.70711C6.31658 10.0976 5.68342 10.0976 5.29289 9.70711C4.90237 9.31658 4.90237 8.68342 5.29289 8.29289L11.2929 2.29289Z" clip-rule="evenodd" fill-rule="evenodd" undefined="1"></path>
</svg>
